X:1
T:Grafton, 87.87.87
T:Grafton, 87.87.87
T:Chants Ordinaires d l’Office Divin, 1881
T:Public Domain Courtesy of the Cyber Hymnal™
C:Chants Ordinaires d l’Office Divin, 1881
Z:Public Domain
Z:Courtesy of the Cyber Hymnal™
%%score ( 1 2 ) ( 3 4 )
L:1/8
Q:1/4=115
M:4/4
K:D
V:1 treble 
V:2 treble 
V:3 bass 
V:4 bass 
V:1
 [A,D]2 [CE]2 [DF]2 D2 | [DF]E FG [CA]2 [A,F]2 | A2 A2 G2 [CG]2 | FE FD [CE]4 | [CE]2 [DF]2 G3 F | %5
 GF ED [CE]2 A,2- x2 | [A,D]2 D2 E2 [CE]2 | FE FG A4 x | AB AG F2 F2 | GA GF E2 [CE]2 | %10
 AB A[CG] F[EA] [Dd][E-G] | F2 z [A,D]4 x |] %12
V:2
 x6 D2- | x2 D2 x4 | D6 x2 | D4 x4 | x4 D4- | D2 B,2 x6 | x2 B,4 x2 | D4- D2 C2 x | D2 E2 D4 | %9
 D4 B,D x2 | D3 x5 | ED (E2 C) x3 |] %12
V:3
 [D,F,]2 [A,,A,]2 A,4- | A,2 [B,,D,]2 [A,,E,]2 D,2 | A,4 [E,,B,]2 [A,,A,-]2 | %3
 A,G, [F,,A,]2 [A,,E,]4 | A,4 [B,,G,]2 [D,A,]2 | [G,,B,]2 [B,,F,]2 A,2 z x3 | %6
 D,4 [E,,G,]2 [A,,A,]2 | A,3 z G, [A,,E,]4 | A,4 A,4 | G,2 D,2 [G,,B,]2 B,2 | A,4- A,2 B,2 | %11
 A,2 E,2 [D,,F,]4 |] %12
V:4
 x4 D,2 F,2 | D,C, x3 D,2 x | F,2 F,,2 x4 | D,2 x6 | A,,2 D,2 x4 | x4 A,,3 C,2 G,, | %6
 F,,2 G,,F,, x4 | D,,2 B,,2 x5 | F,2 C,2 (D,E,) (D,C,) | B,,4 (A,,G,,) x2 | F,,2 F,E, D,C, B,,G,, | %11
 A,,4 x4 |] %12

